X: 31264
T: Paddy Glackin's Trip To Dingle
R: reel
M: 4/4
K: Cmajor
CB,|:G,C~C2 G,E~E2|G,F~F2 DB,CA,|G,C~C2 G,E~E2|1 GABG FDCB,:|2 GABG FDCD||
E2cE dEcE|E2FE DCB,D|E2cE dEcE|GABG FDCD|
E2cE dEcE|E2FE DCB,D|G,E~E2 EF~F2|GABG FDCD||
GcBG FDB,C|C2B,C FDD2|GcBG FDB,C|C2B,C C3D|
GcBG FDB,C|C2B,C DEGE|G,E~E2 EF~F2|GABG FDCD||

